X:121
T:Girl that Broke My Heart
Z: id:dc-reel-257
M:C
L:1/8
K:G Dorian
A|B2AG FDCF|DGG^F GABc|d2dd cAGF|DFFE FAdc|!
B2AG FDCF|DGG^F GABc|defd cAGF|[1 DGG^F G3:|[2 DGG^F GDE|]!
K:G Mixolydian
^F|G2Bd gdBG|F2Ac fcAF|G2Bd gdBd|c2cd cA^FA|!
G2Bd gdBG|F2Ac fcAF|GABd cAGF|[1 DGG^F GDE:|[2 DGG^F G3|]!

